images/resize-icon.svg

<svg width="24" height="24" viewBox="0 0 24 24" fill="none" xmlns="http://www.w3.org/2000/svg">
<g clip-path="url(#clip0_114_19355)">
<path d="M14 5.25C13.5858 5.25 13.25 5.58579 13.25 6C13.25 6.41421 13.5858 6.75 14 6.75V5.25ZM18 6H18.75C18.75 5.58579 18.4142 5.25 18 5.25V6ZM17.25 10C17.25 10.4142 17.5858 10.75 18 10.75C18.4142 10.75 18.75 10.4142 18.75 10H17.25ZM13.4697 9.46967C13.1768 9.76256 13.1768 10.2374 13.4697 10.5303C13.7626 10.8232 14.2374 10.8232 14.5303 10.5303L13.4697 9.46967ZM10 18.75C10.4142 18.75 10.75 18.4142 10.75 18C10.75 17.5858 10.4142 17.25 10 17.25V18.75ZM6 18H5.25C5.25 18.1989 5.32902 18.3897 5.46967 18.5303C5.61032 18.671 5.80109 18.75 6 18.75V18ZM6.75 14C6.75 13.5858 6.41421 13.25 6 13.25C5.58579 13.25 5.25 13.5858 5.25 14H6.75ZM10.5303 14.5303C10.8232 14.2374 10.8232 13.7626 10.5303 13.4697C10.2374 13.1768 9.76256 13.1768 9.46967 13.4697L10.5303 14.5303ZM3.73005 22.455L4.07054 21.7868L3.73005 22.455ZM1.54497 20.27L2.21322 19.9295L1.54497 20.27ZM22.455 20.27L21.7868 19.9295L22.455 20.27ZM20.27 22.455L19.9295 21.7868L20.27 22.455ZM20.27 1.54497L19.9295 2.21322L20.27 1.54497ZM22.455 3.73005L21.7868 4.07054L22.455 3.73005ZM3.73005 1.54497L4.07054 2.21322L3.73005 1.54497ZM1.54497 3.73005L2.21322 4.07054L1.54497 3.73005ZM14 6.75H18V5.25H14V6.75ZM17.25 6V10H18.75V6H17.25ZM17.4697 5.46967L13.4697 9.46967L14.5303 10.5303L18.5303 6.53033L17.4697 5.46967ZM10 17.25H6V18.75H10V17.25ZM6.75 18L6.75 14H5.25L5.25 18H6.75ZM6.53033 18.5303L10.5303 14.5303L9.46967 13.4697L5.46967 17.4697L6.53033 18.5303ZM9 1.75H15V0.25H9V1.75ZM22.25 9V15H23.75V9H22.25ZM15 22.25H9V23.75H15V22.25ZM1.75 15V9H0.25V15H1.75ZM9 22.25C7.58749 22.25 6.57322 22.2494 5.77708 22.1844C4.9897 22.12 4.48197 21.9964 4.07054 21.7868L3.38955 23.1233C4.04768 23.4586 4.77479 23.6075 5.65494 23.6794C6.52632 23.7506 7.61224 23.75 9 23.75V22.25ZM0.25 15C0.25 16.3878 0.249417 17.4737 0.320612 18.3451C0.392522 19.2252 0.541378 19.9523 0.876713 20.6104L2.21322 19.9295C2.00359 19.518 1.87996 19.0103 1.81563 18.2229C1.75058 17.4268 1.75 16.4125 1.75 15H0.25ZM4.07054 21.7868C3.27085 21.3793 2.62068 20.7291 2.21322 19.9295L0.876713 20.6104C1.42798 21.6924 2.30762 22.572 3.38955 23.1233L4.07054 21.7868ZM22.25 15C22.25 16.4125 22.2494 17.4268 22.1844 18.2229C22.12 19.0103 21.9964 19.518 21.7868 19.9295L23.1233 20.6104C23.4586 19.9523 23.6075 19.2252 23.6794 18.3451C23.7506 17.4737 23.75 16.3878 23.75 15H22.25ZM15 23.75C16.3878 23.75 17.4737 23.7506 18.3451 23.6794C19.2252 23.6075 19.9523 23.4586 20.6104 23.1233L19.9295 21.7868C19.518 21.9964 19.0103 22.12 18.2229 22.1844C17.4268 22.2494 16.4125 22.25 15 22.25V23.75ZM21.7868 19.9295C21.3793 20.7291 20.7291 21.3793 19.9295 21.7868L20.6104 23.1233C21.6924 22.572 22.572 21.6924 23.1233 20.6104L21.7868 19.9295ZM15 1.75C16.4125 1.75 17.4268 1.75058 18.2229 1.81563C19.0103 1.87996 19.518 2.00359 19.9295 2.21322L20.6104 0.876713C19.9523 0.541378 19.2252 0.392522 18.3451 0.320612C17.4737 0.249417 16.3878 0.25 15 0.25V1.75ZM23.75 9C23.75 7.61224 23.7506 6.52632 23.6794 5.65494C23.6075 4.77479 23.4586 4.04768 23.1233 3.38955L21.7868 4.07054C21.9964 4.48197 22.12 4.9897 22.1844 5.77708C22.2494 6.57322 22.25 7.58749 22.25 9H23.75ZM19.9295 2.21322C20.7291 2.62068 21.3793 3.27085 21.7868 4.07054L23.1233 3.38955C22.572 2.30762 21.6924 1.42798 20.6104 0.876713L19.9295 2.21322ZM9 0.25C7.61224 0.25 6.52632 0.249417 5.65494 0.320612C4.77479 0.392522 4.04768 0.541378 3.38955 0.876713L4.07054 2.21322C4.48197 2.00359 4.9897 1.87996 5.77708 1.81563C6.57322 1.75058 7.58749 1.75 9 1.75V0.25ZM1.75 9C1.75 7.58749 1.75058 6.57322 1.81563 5.77708C1.87996 4.9897 2.00359 4.48197 2.21322 4.07054L0.876713 3.38955C0.541378 4.04768 0.392522 4.77479 0.320612 5.65494C0.249417 6.52632 0.25 7.61224 0.25 9H1.75ZM3.38955 0.876713C2.30762 1.42798 1.42798 2.30762 0.876713 3.38955L2.21322 4.07054C2.62068 3.27085 3.27085 2.62068 4.07054 2.21322L3.38955 0.876713Z" fill="#7D838C"/>
</g>
<defs>
<clipPath id="clip0_114_19355">
<rect width="24" height="24" fill="white"/>
</clipPath>
</defs>
</svg>

<svg width="24" height="24" fill="none" xmlns="http://www.w3.org/2000/svg"><g clip-path="url(#clip0_114_19355)"><path d="M14 5.25a.75.75 0 000 1.5v-1.5zM18 6h.75a.75.75 0 00-.75-.75V6zm-.75 4a.75.75 0 001.5 0h-1.5zm-3.78-.53a.75.75 0 101.06 1.06l-1.06-1.06zM10 18.75a.75.75 0 000-1.5v1.5zM6 18h-.75a.75.75 0 00.75.75V18zm.75-4a.75.75 0 00-1.5 0h1.5zm3.78.53a.75.75 0 10-1.06-1.06l1.06 1.06zm-6.8 7.925l.34-.668-.34.668zM1.545 20.27l.668-.34-.668.34zm20.91 0l-.668-.34.668.34zm-2.185 2.185l-.34-.668.34.668zm0-20.91l-.34.668.34-.668zm2.185 2.185l-.668.34.668-.34zM3.73 1.545l.34.668-.34-.668zM1.545 3.73l.668.34-.668-.34zM14 6.75h4v-1.5h-4v1.5zM17.25 6v4h1.5V6h-1.5zm.22-.53l-4 4 1.06 1.06 4-4-1.06-1.06zM10 17.25H6v1.5h4v-1.5zM6.75 18v-4h-1.5v4h1.5zm-.22.53l4-4-1.06-1.06-4 4 1.06 1.06zM9 1.75h6V.25H9v1.5zM22.25 9v6h1.5V9h-1.5zM15 22.25H9v1.5h6v-1.5zM1.75 15V9H.25v6h1.5zM9 22.25c-1.413 0-2.427 0-3.223-.066-.787-.064-1.295-.188-1.706-.397l-.681 1.336c.658.336 1.385.485 2.265.556.871.072 1.957.071 3.345.071v-1.5zM.25 15c0 1.388 0 2.474.07 3.345.073.88.221 1.607.557 2.265l1.336-.68c-.21-.412-.333-.92-.397-1.707-.065-.796-.066-1.81-.066-3.223H.25zm3.82 6.787a4.25 4.25 0 01-1.857-1.857l-1.336.68a5.75 5.75 0 002.513 2.513l.68-1.336zM22.25 15c0 1.413 0 2.427-.066 3.223-.064.787-.188 1.295-.397 1.707l1.336.68c.336-.658.485-1.385.556-2.265.072-.871.071-1.957.071-3.345h-1.5zM15 23.75c1.388 0 2.474 0 3.345-.07.88-.072 1.607-.221 2.265-.557l-.68-1.336c-.412.21-.92.333-1.707.397-.796.065-1.81.066-3.223.066v1.5zm6.787-3.82a4.251 4.251 0 01-1.857 1.857l.68 1.336a5.75 5.75 0 002.513-2.513l-1.336-.68zM15 1.75c1.413 0 2.427 0 3.223.066.787.064 1.295.188 1.707.397l.68-1.336C19.952.54 19.225.393 18.345.32 17.474.249 16.388.25 15 .25v1.5zM23.75 9c0-1.388 0-2.474-.07-3.345-.072-.88-.221-1.607-.557-2.265l-1.336.68c.21.412.333.92.397 1.707.065.796.066 1.81.066 3.223h1.5zm-3.82-6.787a4.25 4.25 0 011.857 1.858l1.336-.681A5.75 5.75 0 0020.61.877l-.68 1.336zM9 .25c-1.388 0-2.474 0-3.345.07-.88.073-1.607.221-2.265.557l.68 1.336c.412-.21.92-.333 1.707-.397C6.573 1.75 7.587 1.75 9 1.75V.25zM1.75 9c0-1.413 0-2.427.066-3.223.064-.787.188-1.295.397-1.706L.877 3.39C.54 4.048.393 4.775.32 5.655.249 6.526.25 7.612.25 9h1.5zM3.39.877A5.75 5.75 0 00.877 3.39l1.336.68a4.25 4.25 0 011.858-1.857L3.39.877z" fill="#7D838C"/></g><defs><clipPath id="clip0_114_19355"><path fill="#fff" d="M0 0h24v24H0z"/></clipPath></defs></svg>
